X:1
T:SONATA
T:SONATA
T:for basson and piano
T:JEROME BESOZZI
C:JEROME BESOZZI
%%score 1 { ( 2 4 ) | ( 3 5 ) }
L:1/8
Q:1/4=100
M:2/4
K:Bb
V:1 bass nm="mini-Basson" snm="m-Bas."
V:2 treble nm="Pianoforte" snm="Piano"
V:4 treble 
V:3 bass 
V:5 bass 
V:1
!f!"^Allegro(c.)" .B,, | F,2 C,2 | D,!>(!(G,/E,/) ((F,/D,/))(E,/C,/)!>)! | %3
 D,!>(!(E,/D,/) (D,/B,,/)(C,/A,,/)!>)! | B,, .F,.F,.F, |!<(!({G,A,)} (B,4!<)! | B,)(A,/G,/ F,)E, | %7
!>(! (E,D,)!>)! z!mf! !tenuto!C, | D,/B,,/C,/D,/ E,/F,/G,/A,/ | (B,/C/)B,/A,/ G,/F,/=E,/D,/ | %10
 =E,/C,/D,/E,/ F,/G,/A,/B,/ | (C/D/)C/B,/ A,/G,/F,/=E,/ |"_cresc." F,/D,/=E,/F,/ G,/A,/B,/C/ | %13
 (D/C/)B,/A,/ G,F, |!>(! (=E,/D,/C,)!>)! z!p! (C, | F,)!<(!.F, .F,.F,!<)! | %16
 (G,/=E,/F,) (B,/G,/A,) | (G,/=E,/F,) (B,/G,/A,) |!>(!({B,C)} (D2 C2)!>)! | %19
 z/ (F,/=E,/F,/ G,/F,/E,/F,/) | (!tenuto!D/F,/=E,/F,/ G,/F,/E,/F,/) | %21
 (!tenuto!C/F,/=E,/F,/ G,/F,/E,/F,/) | (!tenuto!B,/F,/=E,/F,/ G,/F,/E,/F,/) | %23
!mf! !tenuto!A,C, C,C, |{C,} D,2 (G,/A,/B,) | C,2 (F,/G,/A,) | B,,2 (=E,/F,/G,) | A,,2 z C | %28
 (F,/G,/A,/B,/ C/A,/G,/F,/) | (F,/G,/A,/B,/ C/A,/G,/F,/) | (G,/A,/B,/C/ D/B,/A,/G,/) | %31
 (G,/A,/B,/C/ D/B,/A,/G,/ | A,).G,/.A,/ (C/B,/).A,/.G,/ | (F,2 =E,2 | F,3)!p! (C |{C} D3 B, | %36
{B,} C3)!mf! .F, | (G,/A,/).B,/.A,/ (B,/G,/)F,/=E,/ | F,3!p! (C |!<(!{C} D3 =E!<)! | %40
!f!!>(!{=E} F3) .F,!>)! | (G,/A,/).B,/.A,/ (B,/G,/).F,/.=E,/ | F,2 z ::!f! .F, | C2 =E,2 | %45
!>(! F,(D/B,/) (C/A,/)(B,/G,/)!>)! |!>(! A,(B,/G,/) (A,/F,/)(G,/=E,/)!>)! | F, .C,.C,.C, | (F,4 | %49
 F,)(=E,/D,/ E,).C, | !tenuto!D,2 (G,/A,/B,) | !tenuto!C,2 (F,/G,/A,) | %52
 !tenuto!B,,/(A,/G,/F,/) (=E,/D,/)C,/B,,/ | (TB,,A,,) z (A, | G,/)C,/A,/C,/ (B,A,) | G,2 z!pp! G, | %56
 (^F,/A,/G,/F,/)"_cresc." (D,/A,/G,/F,/) | (G,/B,/A,/G,/) (D,/B,/A,/G,/) | %58
 (A,/C/B,/A,/) (D,/C/B,/A,/) |!>(! (B,/C/)D/C/ B,/A,/G,/F,/!>)! | %60
!pp! (=E,/G,/F,/E,/) (C,/G,/F,/E,/) |"_cresc." (F,/A,/G,/F,/) (C,/A,/G,/F,/) | %62
 (G,/B,/A,/G,/) (C,/B,/A,/G,/) | (A,/B,/)C/B,/ A,/G,/F,/E,/ |!>(! (TE,D,)!>)! z!p! F, | %65
 (G,/E,/D,/E,/) (G,/E,/D,/E,/) |!>(! (G,/A,/B,/A,/) B,!>)!E, | (F,/D,/C,/D,/) (F,/D,/C,/D,/) | %68
!>(! (F,/A,/B,/A,/ B,)!>)!D, | (E,/C,/B,,/C,/) (E,/C,/B,,/C,/) | (E,/F,/G,/F,/ G,).E, | %71
!<(! (D,F, B,).D,!<)! |!>(! (D,C,)!>)! z F, | (=E,/F,/G,/A,/ B,/A,/G,/F,/ | %74
 =E,/F,/G,/A,/ B,/A,/G,/F,/ | =E,/F,/G,/A,/ B,/G,/F,/E,/ | F,) _E,2 uD,/C,/ | (D,/F,/)E,/D,/ B,D, | %78
 (E,/G,/)F,/E,/ CE, | (D,/F,/)E,/D,/!>(! B,D,!>)! |!p! (C,/D,/E,) (D,/E,/F,) | %81
"_cresc." (E,/F,/G,) (F,/G,/)A,/F,/ | !>!B,(A,/G,/ F,)E, | D,2 C,2 | B,,3!p! (F, |{F,} G,3 E, | %86
{E,} F,3)!mf! B,, | (C,/D,/)E,/D,/ (E,/C,/)B,,/A,,/ |{A,,} B,,3!p! (F, |!<(!{/F,} G,3 A,!<)! | %90
{/A,} B,3)!f! B,, | (C,/D,/)E,/D,/ (E,/C,/)B,,/A,,/ | B,,/(B,/A,/B,/) D,C, | B,,/(B,/A,/B,/) D,C, | %94
 B,,3 x |] %95
V:2
 z |!f! [DF]2 ([FA]2 | F)G FE | B B2 A | [B,F]2 z2 | z2 [FBd]2- | [FBd]2 [Fc]2 | [FB]2 z2 | %8
 F2 (F2- | F2) (B2- | B2) (=E2- | E2) (c2- | c2) (F2- | F2) dG | G/F/=E z2 | z .c .c.c | Tc4- | %17
 c4 |{GA} B2 A/C/F/G/ | A2 (F2- | F2) (F2- | F2) (F2- | F3) =E | [A,F]2 z2 | z2 D2 | (=E2 F2) | %26
 (D2 =E2) | F2 z .G | A2 z .B | c2 z .A | G2 z2 | c2 z .G | [CF]2 (A2- | A2) (TG2{F)G} | %34
 F2!p! (F2 | F2) z2 | F4 | D2 =E2 | [A,F]2 z c |{/c} d3 =e |{/=e} f3 z | [DB]2 [B,G]2 | F3 :: z | %44
!f! F2 G2 | F2 F2- | F F2 =E | F2 z2 | z2 F2 | [CG]4 | F2 (G2- | G2) F2 | B3 G | GA z2 | %54
 .B.A (GF) | =E z G z | [D^FAd]4 | [DGd]4 | [EAd]4 | [DGBd]2 z2 | [=EGc]4 | [CFc]4 | [CGc]4 | %63
 [CFAc]2 z c | B2!p! (B2 | B2) EG | BEGB | B2 B,F | BB,FB | [EG]2 CE | GcEG | F2 dB | PBA z A | %73
 B4 | B4 | B3 G | F4 | [DB]2 z .[DB] | [Ec]2 z .[Ec] | [DB]2 z .[DB] | A/B/c B/c/d | %81
"_cresc." c2 A2 | [FB]3 G | F3 TE | z2!p! B2- | B2 B2- | B2 ED | C3 E | D3 B |{/A} B3 c | %90
{/c} d3 z |!f! [Ec]3 [Ec] | [DB]2 B/b/a/b/ | B/b/a/b/ [FBd][EAc] | B3 x |] %95
V:3
 z | .B,,.D, .C,.E, | D,(E, D,C, | B,,)([G,,G,] [F,,F,][E,,E,] | [D,,D,]2) z2 | z .B,,.B,,.B,, | %6
w: ||||||
 F,2 A,,2 | B,,(B,,/C,/ D,)!mf!A,, | .B,,.B,,.B,,.B,, | .G,,.G,,.G,,.G,, | C,C,C,C, | %11
w: ||||sim. * * *|
 A,,A,,A,,A,, | D,D,D,D, | B,,B,,B,,B,, | C,(C,/D,/ C,)B,, | A,,G,,F,,A,, | (B,,A,,)(G,,F,,) | %17
w: ||||||
 (B,,A,,)(G,,F,,) | (B,,2 A,,2) | F,A,,A,,A,, | B,,B,,B,,B,, | A,,A,,A,,A,, | G,,G,,C,C,, | %23
w: ||||||
 .F,,2 (C,2 | C,)B,,/A,,/ (B,,2 | B,,)A,,/G,,/ (A,,2 | A,,)G,,/F,,/ G,,C,, | %27
w: ||||
 F,,(F,,/G,,/ A,,).=E,, | F,,2 z .G,, | A,,2 z .F,, | =E,,2 z2 | [C,,C,]2 z .=E,, | %32
w: |||||
 (F,,2 (F,,/)G,,/A,,/B,,/) | C,2 C,,2 | F,,(A,,G,,F,,) | z (B,,A,,G,,) | z (A,,G,,F,,) | %37
w: |||||
 B,,G,,C,C,, | F,,(A,,G,,F,,) | z (B,,A,,G,,) | z (A,,G,,F,,) | B,,G,,C,C,, | F,,3 :: z | %44
w: |||||||
 F,,A,,G,,B,, | A,,(B,,A,,G,, | F,,)[D,,D,][C,,C,][B,,,B,,] | [A,,,A,,]2 z2 | z (C,,C,,C,,) | %49
w: |||||
 (C,4 | C,)B,,/A,,/ (B,,2 | B,,)A,,/G,,/ A,,2- | A,,2 G,,=E,, | F,,(F,,/G,,/ A,,)F,, | %54
w: |||||
 .B,,.A,,(G,,F,,) | C,,(C,,/D,,/ =E,,)C, | D,4 | B,,4 | z2 ^F,2 | G,2 z2 | C,4 | A,,4 | z2 =E,2 | %63
w: |||||||||
 F,2 (F,2- | F,2) z2 | E,E,,E,,E,, | z E,E,E, | D,2 z2 | z D,D,D, | C,C,C,C, | A,,A,,A,,A,, | %71
w: ||||||||
 (B,,C,D,)B,, | F,,(A,,/G,,/ F,,)F,, | z2 (G,2 | G,2) (G,2 | G,2) G,2 | A,,(C,/B,,/ A,,)F,, | %77
w: ||||||
 B,,2 z B,, | C,2 z .A,, | B,,2 z .B,, | F,,4- | F,,4 | D,,(F,,/E,,/ D,,).E,, | F,,2 F,,2 | %84
w: |||||||
 B,,(D,C,B,,) | z (E,D,C,) | z (D,C,B,,) | [E,,E,]3 F,, | B,,(D,C,B,,) | z (E,D,C,) | z (D,C,B,,) | %91
w: |||||||
 [E,,E,]3 F,, | B,,B,, F,F,, | B,,B,, F,F,, | B,,3 x |] %95
w: ||||
V:4
 x | x4 | B2 B2- | DE DC | B2 x2 | x4 | x4 | x4 | D2 (D2- | D2) (D2 | =E2) (C2- | C2) (=E2 | %12
 F2) (D2- | D2) x2 | x4 | x4 | x4 | x4 | x4 | F2 (C2 | D2) (D2 | C2) (C2 | B,4) | x4 | x4 | C4 | %26
 B,4 | x4 | C2 x F | F2 x C | C2 x2 | =E2 x2 | x2 (F2- | F2) =E2 | x2 (A,2 | B,4) | A,4 | x2 B,2 | %38
 x4 | x4 | x4 | x4 | A,2 x :: x | A,2 (C2 | C)(D CB, | A,)B, A,G, | [F,C]2 x2 | x2 A,2 | x4 | %50
 F2 D2 | =E2 C2 | D3 x | =EF z2 | x4 | x4 | x4 | x4 | x4 | x4 | x4 | x4 | x4 | x4 | %64
 z2 z/ (F/G/_A/ | G2) x2 | z2 G2 | F2 x2 | z2 F2 | x4 | C4 | x4 | x4 | z =E2 (E | =E) E2 (E | %75
 =E) E2 z | C4 | x4 | x4 | x4 | x4 | E2 F2 | x4 | B,2 A,2 | [B,D]4 | [B,E]4 | [B,D]2 z2 | G,3 C | %88
 x4 | x4 | x4 | x4 | x4 | x4 | [DF]3 x |] %95
V:5
 x | x4 | x4 | x4 | x4 | x4 | x4 | x4 | x4 | x4 | x4 | x4 | x4 | x4 | x4 | x4 | x4 | x4 | x4 | x4 | %20
 x4 | x4 | x4 | x4 | x4 | x4 | x4 | x4 | x4 | x4 | x4 | x4 | x4 | x4 | x4 | x4 | x4 | x4 | x4 | %39
 x4 | x4 | x4 | x3 :: x | x4 | x4 | x4 | x4 | x4 | x4 | x4 | x4 | x4 | x4 | x4 | x4 | x4 | x4 | %58
 ^F,,4 | G,,2 z B,, | x4 | x4 | =E,,4 | F,,2 z A,, | B,,(B,,/C,/ D,)B,, | x4 | E,,E,,E,,E,, | %67
 D,,D,,D,,D,, | D,,D,,D,,D,, | x4 | x4 | x4 | x4 | G,,4 | G,,4 | G,,4 | x4 | x4 | x4 | x4 | x4 | %81
 x4 | x4 | x4 | x4 | x4 | x4 | x4 | x4 | x4 | x4 | x4 | x4 | x4 | x4 |] %95

